static/assets/images/products/kubevault/features/security.svg

<svg width="32" height="32" viewBox="0 0 32 32" fill="none" xmlns="http://www.w3.org/2000/svg">
<g clip-path="url(#clip0_4396_28277)">
<path d="M27.5552 4.03807L16.222 0.038109C16.0788 -0.012703 15.9212 -0.012703 15.778 0.038109L4.44481 4.03807C4.17856 4.13244 4.00012 4.38444 4.00012 4.667V12.6669C4.00012 23.0197 5.5353 26.8035 15.6999 31.9285C15.7943 31.976 15.8971 32.0001 16 32.0001C16.1029 32.0001 16.2058 31.976 16.3001 31.9285C26.4647 26.8035 27.9999 23.0197 27.9999 12.6669V4.667C27.9999 4.38444 27.8215 4.13251 27.5552 4.03807ZM16.3118 28.9226C16.1068 29.0307 15.8503 29.0223 15.6562 28.9044C15.4569 28.7846 15.3333 28.5658 15.3333 28.3335V17.3336C15.3333 16.9651 15.0351 16.6669 14.6666 16.6669H7.39784C7.04041 16.6669 6.7481 16.3876 6.73185 16.0308C6.6856 15.0126 6.66672 13.9058 6.66672 12.6669V6.55367C6.66672 6.2718 6.84578 6.01918 7.1114 5.92543L15.7793 2.86621C15.8496 2.84083 15.9239 2.82846 16 2.82846C16.1387 2.82846 16.2721 2.87077 16.3848 2.95083C16.5612 3.07583 16.6666 3.27895 16.6666 3.49508V14.6668C16.6666 15.0353 16.9648 15.3335 17.3333 15.3335H24.6021C24.7837 15.3335 24.9589 15.4084 25.0839 15.5386C25.2089 15.6701 25.2759 15.8498 25.2681 16.0308C24.9602 22.7547 23.2024 25.2853 16.3118 28.9226Z" fill="#326CE5"/>
</g>
<defs>
<clipPath id="clip0_4396_28277">
<rect width="32" height="32" fill="white"/>
</clipPath>
</defs>
</svg>

<svg xmlns="http://www.w3.org/2000/svg" width="32" height="32" fill="none" xmlns:v="https://vecta.io/nano"><g clip-path="url(#A)"><path d="M27.555 4.038l-11.333-4c-.143-.051-.301-.051-.444 0l-11.333 4A.67.67 0 0 0 4 4.667v8C4 23.02 5.535 26.804 15.7 31.929A.67.67 0 0 0 16 32c.103 0 .206-.024.3-.072C26.465 26.804 28 23.02 28 12.667v-8a.67.67 0 0 0-.445-.629zM16.312 28.923c-.205.108-.462.1-.656-.018a.67.67 0 0 1-.323-.571v-11c0-.369-.298-.667-.667-.667H7.398c-.357 0-.65-.279-.666-.636a74.53 74.53 0 0 1-.065-3.364V6.554a.67.67 0 0 1 .445-.628l8.668-3.059A.65.65 0 0 1 16 2.828a.66.66 0 0 1 .385.122.67.67 0 0 1 .282.544v11.172c0 .368.298.667.667.667h7.269a.67.67 0 0 1 .482.205c.125.131.192.311.184.492-.308 6.724-2.066 9.255-8.956 12.892z" fill="#326ce5"/></g><defs><clipPath id="A"><path fill="#fff" d="M0 0h32v32H0z"/></clipPath></defs></svg>
